X: 53
M: 6/8
L: 1/8
K: A
uE|vA3  c>BA|"4"e>cA c>BA|(B2.c) (d2.e)|(f>a)f ecB|
uA|A>FE EFA|B>AF (d2f)|e>dc cBA|BAF (F2A)|


